<?xml version="1.0" encoding="UTF-8"?>
<map version="1.10" tiledversion="1.11.2" orientation="orthogonal" renderorder="right-down" width="30" height="30" tilewidth="32" tileheight="32" infinite="0" nextlayerid="2" nextobjectid="1">
 <tileset firstgid="1" source="../limite.tsx"/>
 <layer id="1" name="Capa de patrones 1" width="30" height="30">
  <data encoding="csv">
6,6,20,20,76,6,6,6,6,6,6,6,6,6,6,6,6,6,6,6,6,6,6,6,6,6,6,6,6,6,
6,6,20,76,76,6,6,6,6,6,6,6,6,6,6,6,6,6,6,6,6,6,6,6,6,6,6,6,6,6,
6,6,20,76,76,6,6,6,6,6,6,6,6,6,6,6,6,6,76,76,76,76,76,76,76,76,76,6,6,6,
6,6,20,76,76,6,6,6,6,6,6,6,6,6,6,6,6,76,76,76,76,76,76,76,76,76,76,76,6,6,
6,6,20,76,76,6,6,6,6,6,6,6,6,6,6,6,76,76,76,76,76,76,76,76,20,76,76,76,6,6,
6,6,76,76,76,6,6,6,6,6,6,6,6,6,6,6,76,76,76,76,6,6,6,6,20,20,76,76,76,6,
6,6,20,76,76,6,6,6,6,6,6,6,6,6,6,76,76,76,76,6,6,6,6,6,6,20,20,76,76,6,
6,6,20,20,76,76,6,6,6,6,6,6,6,6,6,76,76,76,76,6,6,6,6,6,6,20,20,76,76,6,
6,6,6,20,76,76,6,6,6,6,6,6,6,6,6,76,76,76,76,6,6,6,6,6,6,76,20,76,76,6,
6,6,6,20,76,76,76,6,6,6,6,6,6,6,6,6,76,76,76,6,6,6,6,6,76,76,20,20,76,6,
6,6,6,6,20,20,76,76,76,6,6,6,6,6,6,6,76,76,76,6,6,6,6,6,76,76,20,20,76,6,
6,6,6,6,6,20,20,20,76,76,76,76,76,76,6,6,76,76,76,6,6,6,6,76,76,20,20,76,76,6,
6,6,6,6,6,6,6,20,20,76,76,76,76,76,20,20,76,76,76,6,6,76,76,76,20,20,76,76,6,6,
6,6,6,6,6,6,6,6,20,20,76,76,76,76,76,20,20,20,20,76,76,76,76,76,76,76,76,6,6,6,
6,6,6,6,6,6,6,6,6,6,6,6,6,6,6,76,76,76,20,76,76,76,76,76,76,6,6,6,6,6,
6,6,6,6,6,6,6,6,6,6,6,6,6,6,6,6,76,76,76,20,20,20,20,20,6,6,6,6,6,6,
6,6,6,6,6,6,6,6,6,6,6,6,6,6,6,6,6,20,76,20,20,6,6,6,6,6,6,6,6,6,
6,6,6,20,20,76,76,76,76,76,76,76,76,20,6,6,6,20,76,76,76,76,6,6,6,6,6,6,6,6,
6,6,6,20,76,76,76,76,76,76,76,20,76,76,76,6,6,6,20,76,76,76,76,76,76,76,76,6,6,6,
6,6,20,20,76,76,76,20,20,20,20,20,20,76,76,76,6,6,6,20,20,20,20,20,76,76,76,76,6,6,
6,6,20,20,76,76,6,6,6,6,6,6,20,20,76,76,76,6,6,6,20,20,20,20,20,20,76,76,76,6,
6,6,20,20,76,76,6,6,6,6,6,20,20,20,20,76,76,76,6,6,6,6,6,20,20,20,20,20,76,6,
6,6,20,20,76,76,6,6,6,6,20,20,20,6,20,20,76,76,20,6,6,6,6,6,20,20,20,20,76,76,
6,6,20,76,76,20,6,6,6,20,20,20,6,6,6,20,20,20,76,20,6,6,6,6,6,6,20,76,76,76,
6,6,20,76,20,20,6,6,20,20,20,6,6,6,6,6,20,20,20,76,6,6,6,6,6,6,20,76,76,20,
6,6,6,76,20,20,6,6,20,20,20,6,6,6,6,6,20,20,20,20,76,6,6,6,6,20,20,76,76,20,
6,6,6,76,20,20,6,20,20,20,6,6,6,6,6,6,6,20,20,20,76,76,6,20,20,20,20,76,76,6,
6,6,6,76,20,20,20,20,20,6,6,6,6,6,6,6,6,6,20,20,20,20,20,20,20,20,20,76,76,6,
6,6,6,76,20,20,20,20,6,6,6,6,6,6,6,6,6,6,6,20,20,20,20,20,20,76,76,6,6,6,
6,6,6,76,20,20,20,6,6,6,6,6,6,6,6,6,6,6,6,6,6,20,20,20,76,6,6,6,6,6
</data>
 </layer>
</map>
